docs/img/quickly.svg

<svg width="102" height="103" viewBox="0 0 102 103" fill="none" xmlns="http://www.w3.org/2000/svg">
<path fill-rule="evenodd" clip-rule="evenodd" d="M58.1528 32.81C54.6607 36.302 48.9988 36.302 45.5068 32.81C42.0138 29.318 42.0138 23.656 45.5068 20.164C48.9988 16.671 54.6607 16.671 58.1528 20.164C61.6448 23.656 61.6458 29.318 58.1528 32.81ZM66.7967 15.798L62.5818 11.582L58.5068 13.942C57.7167 13.521 56.8947 13.184 56.0537 12.923L54.8417 8.37598H48.8807L47.6748 12.899C46.8208 13.159 45.9858 13.498 45.1827 13.923L41.1407 11.582L36.9248 15.798L39.2657 19.84C38.8407 20.643 38.5017 21.478 38.2407 22.332L33.7188 23.538V29.499L38.2657 30.711C38.5268 31.552 38.8637 32.374 39.2847 33.164L36.9248 37.239L41.1407 41.455L45.2388 39.081C46.0188 39.489 46.8288 39.815 47.6558 40.069L48.8807 44.661H54.8417L56.0728 40.044C56.8878 39.79 57.6857 39.468 58.4527 39.064L62.5818 41.455L66.7967 37.239L64.4067 33.111C64.8107 32.343 65.1327 31.544 65.3867 30.73L70.0028 29.499V23.538L65.4118 22.314C65.1578 21.486 64.8317 20.675 64.4237 19.897L66.7967 15.798Z" fill="#F7941E"/>
<path fill-rule="evenodd" clip-rule="evenodd" d="M69.6325 75.0665C64.8705 79.8285 57.1495 79.8285 52.3875 75.0665C47.6255 70.3035 47.6255 62.5835 52.3875 57.8215C57.1495 53.0585 64.8705 53.0585 69.6325 57.8215C74.3945 62.5835 74.3945 70.3035 69.6325 75.0665ZM81.4195 51.8685L75.6715 46.1205L70.1185 49.3365C69.0395 48.7605 67.9175 48.2965 66.7685 47.9405L65.1175 41.7485H56.9885L55.3455 47.9105C54.1795 48.2655 53.0405 48.7315 51.9455 49.3105L46.4345 46.1205L40.6865 51.8685L43.8775 57.3795C43.2975 58.4745 42.8315 59.6135 42.4765 60.7795L36.3145 62.4215V70.5505L42.5075 72.2025C42.8635 73.3505 43.3265 74.4725 43.9015 75.5515L40.6865 81.1055L46.4345 86.8535L52.0225 83.6175C53.0865 84.1745 54.1915 84.6235 55.3205 84.9685L56.9885 91.2245H65.1175L66.7935 84.9385C67.9065 84.5915 68.9945 84.1465 70.0425 83.5935L75.6715 86.8535L81.4195 81.1055L78.1605 75.4765C78.7125 74.4285 79.1575 73.3395 79.5055 72.2275L85.7915 70.5505V62.4215L79.5355 60.7535C79.1895 59.6255 78.7405 58.5195 78.1835 57.4565L81.4195 51.8685Z" fill="#F86703"/>
<path fill-rule="evenodd" clip-rule="evenodd" d="M29.1685 61.8851C25.9545 64.2581 21.4245 63.5751 19.0525 60.3621C16.6795 57.1471 17.3615 52.6171 20.5765 50.2451C23.7905 47.8721 28.3195 48.5551 30.6925 51.7691C33.0645 54.9841 32.3825 59.5121 29.1685 61.8851ZM38.1325 49.3191L35.2695 45.4391L31.7255 46.8351C31.1445 46.4031 30.5275 46.0341 29.8855 45.7251L29.4645 41.9421L24.6955 41.2231L23.1865 44.6961C22.4715 44.8001 21.7625 44.9721 21.0695 45.2141L18.1185 42.8551L14.2385 45.7191L15.6235 49.2351C15.1875 49.8251 14.8145 50.4521 14.5035 51.1041L10.7415 51.5241L10.0225 56.2921L13.5135 57.8101C13.6215 58.5141 13.7915 59.2121 14.0325 59.8951L11.6545 62.8691L14.5185 66.7491L18.0835 65.3451C18.6575 65.7651 19.2665 66.1231 19.8975 66.4261L20.3235 70.2461L25.0915 70.9651L26.6325 67.4211C27.3145 67.3161 27.9925 67.1551 28.6545 66.9231L31.6695 69.3331L35.5485 66.4691L34.1345 62.8791C34.5505 62.3141 34.9035 61.7141 35.2055 61.0931L39.0465 60.6641L39.7645 55.8961L36.2395 54.3641C36.1365 53.6711 35.9735 52.9841 35.7405 52.3111L38.1325 49.3191Z" fill="#F15A28"/>
<mask id="mask0_0_2335" style="mask-type:alpha" maskUnits="userSpaceOnUse" x="0" y="1" width="102" height="102">
<path fill-rule="evenodd" clip-rule="evenodd" d="M101.678 1.00049V102.671H0L0 1.00049H101.678V1.00049Z" fill="white"/>
</mask>
<g mask="url(#mask0_0_2335)">
<path fill-rule="evenodd" clip-rule="evenodd" d="M19.6411 13.9016C19.6211 13.9226 19.6021 13.9406 19.5791 13.9586C18.3831 14.9486 17.2181 16.0096 16.1181 17.1106L15.5491 17.6876C15.2051 17.9826 14.6641 18.0406 14.3201 17.7046C13.9761 17.3726 13.9671 16.8196 14.3031 16.4756L14.8891 15.8806C16.0281 14.7426 17.2321 13.6446 18.4721 12.6196C18.8401 12.3116 19.3881 12.3656 19.6951 12.7356C19.9841 13.0826 19.9531 13.5896 19.6411 13.9016ZM8.72007 26.5176C8.44307 26.7956 8.00307 26.8586 7.65507 26.6466C7.24307 26.3956 7.11207 25.8616 7.36207 25.4526C8.34607 23.8326 9.43007 22.2556 10.5821 20.7686C10.8961 20.3826 11.4261 20.3186 11.8031 20.6126C12.1831 20.9066 12.2521 21.4526 11.9591 21.8336C10.8461 23.2696 9.79907 24.7916 8.84907 26.3536C8.81107 26.4156 8.76807 26.4696 8.72007 26.5176ZM28.9771 7.79864C28.9141 7.86264 28.8401 7.91964 28.7531 7.96264C27.1311 8.77764 25.5321 9.70064 23.9971 10.7026C23.5961 10.9646 23.0581 10.8526 22.7951 10.4506C22.5331 10.0496 22.6371 9.50864 23.0461 9.24764C24.6351 8.20864 26.2911 7.25264 27.9731 6.40664C28.4021 6.19064 28.9241 6.36264 29.1411 6.79464C29.3131 7.13664 29.2361 7.54064 28.9771 7.79864ZM4.03707 36.6376C3.81107 36.8636 3.47007 36.9556 3.14807 36.8466C2.69107 36.6966 2.44607 36.2036 2.59807 35.7486C3.18907 33.9676 3.89407 32.1916 4.68907 30.4646C4.88107 30.0326 5.40607 29.8376 5.84307 30.0406C6.27807 30.2406 6.47007 30.7566 6.26807 31.1936C5.49807 32.8626 4.81907 34.5806 4.24607 36.2976C4.20307 36.4306 4.12907 36.5456 4.03707 36.6376ZM39.4411 3.93064C39.3331 4.03964 39.1961 4.12264 39.0351 4.16164C37.2601 4.59764 35.4941 5.13964 33.7871 5.77164C33.3371 5.93764 32.8361 5.70964 32.6701 5.25664C32.5011 4.80664 32.7321 4.30664 33.1851 4.14064C34.9541 3.48564 36.7811 2.92464 38.6191 2.47164C39.0861 2.35764 39.5571 2.64064 39.6711 3.10864C39.7461 3.41564 39.6501 3.72264 39.4411 3.93064ZM1.72107 47.5426C1.54307 47.7206 1.28907 47.8206 1.02107 47.7946C0.542069 47.7466 0.194069 47.3196 0.240069 46.8426C0.425069 44.9716 0.716069 43.0826 1.10707 41.2296C1.20407 40.7626 1.66807 40.4576 2.13707 40.5586C2.60807 40.6576 2.90807 41.1186 2.80807 41.5886C2.43207 43.3786 2.15007 45.2046 1.97207 47.0126C1.95207 47.2216 1.85807 47.4056 1.72107 47.5426ZM50.5011 2.48364C50.3481 2.63664 50.1371 2.73564 49.9031 2.73864C48.0841 2.77264 46.2401 2.91064 44.4291 3.14564C43.9511 3.20964 43.5161 2.87264 43.4541 2.39664C43.3901 1.92064 43.7251 1.48264 44.2031 1.42264C46.0791 1.17664 47.9851 1.03464 49.8711 1.00064C50.3511 0.991644 50.7471 1.37364 50.7561 1.85264C50.7621 2.09864 50.6621 2.32364 50.5011 2.48364ZM1.87107 58.6966C1.73807 58.8296 1.56307 58.9206 1.36507 58.9456C0.888069 59.0056 0.453069 58.6666 0.393069 58.1906C0.159069 56.3166 0.0270692 54.4096 6.9188e-05 52.5196C-0.00593081 52.0426 0.379069 51.6456 0.859069 51.6366C1.33907 51.6316 1.73307 52.0146 1.74107 52.4966C1.76607 54.3196 1.89207 56.1646 2.12007 57.9736C2.15407 58.2516 2.05307 58.5136 1.87107 58.6966ZM61.6071 3.51164C61.4081 3.71164 61.1141 3.81064 60.8181 3.74964C59.0341 3.38064 57.2071 3.10864 55.3901 2.93864C54.9121 2.89364 54.5601 2.47064 54.6031 1.99364C54.6501 1.51364 55.0721 1.16364 55.5491 1.20764C57.4331 1.38164 59.3231 1.66364 61.1681 2.04564C61.6391 2.14364 61.9411 2.60164 61.8451 3.07264C61.8101 3.24564 61.7241 3.39464 61.6071 3.51164ZM4.48407 69.5426C4.39507 69.6306 4.29007 69.7016 4.16507 69.7446C3.71407 69.9096 3.21607 69.6766 3.05207 69.2236C2.40907 67.4526 1.85607 65.6226 1.41207 63.7816C1.29807 63.3146 1.58907 62.8416 2.05507 62.7316C2.52107 62.6206 2.99207 62.9086 3.10407 63.3746C3.53207 65.1526 4.06407 66.9196 4.68607 68.6306C4.80607 68.9596 4.71507 69.3106 4.48407 69.5426ZM72.2071 6.97164C71.9581 7.21964 71.5711 7.30364 71.2331 7.14764C69.5711 6.39164 67.8521 5.71964 66.1201 5.15564C65.6621 5.00664 65.4131 4.51464 65.5621 4.05964C65.7121 3.59964 66.2041 3.35364 66.6581 3.50164C68.4521 4.08764 70.2351 4.78264 71.9531 5.56664C72.3911 5.76464 72.5831 6.28064 72.3841 6.71664C72.3401 6.81564 72.2781 6.90064 72.2071 6.97164ZM9.44607 79.5336C9.40407 79.5756 9.35607 79.6146 9.30407 79.6486C8.89907 79.9096 8.36207 79.7936 8.10107 79.3916C7.07307 77.7996 6.12807 76.1366 5.28907 74.4486C5.07707 74.0186 5.25307 73.4956 5.68307 73.2826C6.11207 73.0706 6.63407 73.2456 6.84807 73.6756C7.65607 75.3056 8.57007 76.9106 9.56207 78.4466C9.78807 78.7976 9.73107 79.2486 9.44607 79.5336ZM81.7651 12.7126C81.4611 13.0156 80.9741 13.0546 80.6221 12.7876C79.1781 11.6806 77.6531 10.6446 76.0851 9.70464C75.6731 9.45764 75.5401 8.92264 75.7871 8.50964C76.0401 8.10664 76.5701 7.96464 76.9821 8.21264C78.6021 9.18564 80.1841 10.2606 81.6811 11.4046C82.0621 11.6966 82.1351 12.2436 81.8431 12.6256C81.8181 12.6556 81.7921 12.6846 81.7651 12.7126ZM16.5081 88.1656C16.1711 88.5026 15.6261 88.5066 15.2861 88.1726L14.8961 87.7886C13.6751 86.5676 12.5171 85.2916 11.4491 83.9826C11.1421 83.6096 11.1991 83.0206 11.5701 82.7586C11.9421 82.4546 12.4911 82.5086 12.7931 82.8806C13.8291 84.1446 14.9461 85.3806 16.1181 86.5516L16.5001 86.9286C16.8451 87.2646 16.8521 87.8156 16.5151 88.1586C16.5121 88.1616 16.5111 88.1626 16.5081 88.1656ZM90.5141 21.2676C90.4911 21.2906 90.4681 21.3136 90.4421 21.3346C90.0671 21.6326 89.5191 21.5746 89.2191 21.1986C88.0831 19.7796 86.8511 18.4036 85.5591 17.1106C85.3051 16.8526 85.0501 16.6046 84.7921 16.3586C84.4441 16.0276 84.4331 15.4746 84.7641 15.1296C84.7691 15.1246 84.7741 15.1196 84.7781 15.1156C85.1121 14.7816 85.6511 14.7736 85.9931 15.1006C86.2621 15.3576 86.5281 15.6186 86.7911 15.8836C88.1271 17.2196 89.4021 18.6426 90.5781 20.1106C90.8571 20.4596 90.8221 20.9596 90.5141 21.2676ZM25.2901 95.0336C25.0111 95.3126 24.5701 95.3756 24.2191 95.1596C22.6081 94.1676 21.0381 93.0746 19.5561 91.9137C19.1771 91.6186 19.1101 91.0716 19.4081 90.6926C19.7011 90.3516 20.2501 90.2477 20.6291 90.5456C22.0601 91.6646 23.5761 92.7197 25.1331 93.6786C25.5401 93.9296 25.6681 94.4646 25.4161 94.8766C25.3801 94.9346 25.3371 94.9876 25.2901 95.0336ZM96.4641 30.7056C96.3971 30.7716 96.3191 30.8296 96.2281 30.8746C95.7971 31.0826 95.2751 30.9016 95.0661 30.4686C94.2701 28.8236 93.3721 27.2096 92.4021 25.6696C92.1481 25.2636 92.2581 24.7316 92.6741 24.4686C93.0801 24.2136 93.6191 24.3346 93.8741 24.7406C94.8791 26.3356 95.8081 28.0066 96.6331 29.7116C96.7981 30.0526 96.7191 30.4506 96.4641 30.7056ZM35.3841 99.7747C35.1591 100.001 34.8161 100.094 34.4921 99.9846C32.6981 99.3786 30.9241 98.6637 29.2191 97.8606C28.7841 97.6566 28.5971 97.1367 28.8031 96.7037C29.0111 96.2696 29.5221 96.0797 29.9591 96.2877C31.6061 97.0606 33.3171 97.7506 35.0471 98.3366C35.5031 98.4906 35.7471 98.9837 35.5941 99.4376C35.5491 99.5696 35.4771 99.6816 35.3841 99.7747ZM100.155 41.2326C100.042 41.3446 99.8991 41.4276 99.7351 41.4646C99.2661 41.5726 98.8011 41.2806 98.6941 40.8116C98.2851 39.0296 97.7721 37.2556 97.1711 35.5386C97.0111 35.0836 97.2521 34.5846 97.7031 34.4306C98.1561 34.2706 98.6531 34.5106 98.8101 34.9636C99.4351 36.7416 99.9661 38.5796 100.388 40.4236C100.459 40.7266 100.359 41.0286 100.155 41.2326ZM46.2791 102.151C46.1011 102.329 45.8471 102.43 45.5751 102.401C43.6881 102.206 41.8011 101.904 39.9661 101.503C39.4961 101.4 39.2001 100.936 39.3011 100.467C39.4011 99.9976 39.8701 99.6996 40.3361 99.8016C42.1091 100.19 43.9331 100.481 45.7541 100.672C46.2311 100.72 46.5781 101.149 46.5291 101.626C46.5081 101.833 46.4151 102.015 46.2791 102.151ZM101.423 52.3156C101.266 52.4726 101.05 52.5696 100.81 52.5696C100.33 52.5726 99.9401 52.1826 99.9401 51.7026C99.9341 49.8786 99.8271 48.0356 99.6191 46.2226C99.5701 45.7456 99.9101 45.3186 100.385 45.2586C100.861 45.2066 101.293 45.5486 101.348 46.0256C101.564 47.9016 101.674 49.8096 101.678 51.6996C101.679 51.9406 101.581 52.1586 101.423 52.3156ZM57.4331 102.061C57.3001 102.194 57.1231 102.287 56.9231 102.311C55.0471 102.536 53.1401 102.658 51.2501 102.672C50.7691 102.675 50.3771 102.29 50.3741 101.809C50.3701 101.328 50.7591 100.933 51.2361 100.933C53.0621 100.918 54.9061 100.8 56.7141 100.582C57.1911 100.527 57.6251 100.865 57.6831 101.342C57.7161 101.619 57.6151 101.879 57.4331 102.061ZM100.215 63.4026C100.012 63.6056 99.7131 63.7056 99.4111 63.6366C98.9411 63.5316 98.6471 63.0676 98.7511 62.5986C99.1491 60.8216 99.4511 59.0016 99.6481 57.1856C99.6961 56.7076 100.123 56.3626 100.606 56.4116C101.085 56.4646 101.429 56.8936 101.379 57.3726C101.172 59.2536 100.861 61.1396 100.449 62.9776C100.411 63.1456 100.328 63.2906 100.215 63.4026ZM68.2891 99.5066C68.2011 99.5956 68.0921 99.6666 67.9661 99.7116C66.1941 100.344 64.3591 100.884 62.5141 101.321C62.0451 101.43 61.5791 101.14 61.4671 100.673C61.3561 100.203 61.6481 99.7376 62.1151 99.6266C63.8981 99.2056 65.6701 98.6846 67.3821 98.0746C67.8351 97.9116 68.3321 98.1476 68.4931 98.6006C68.6111 98.9266 68.5191 99.2776 68.2891 99.5066ZM96.5791 73.9436C96.3271 74.1966 95.9331 74.2776 95.5921 74.1156C95.1581 73.9076 94.9731 73.3896 95.1791 72.9566C95.9651 71.3016 96.6651 69.5926 97.2581 67.8756C97.4111 67.4216 97.9101 67.1796 98.3621 67.3376C98.8161 67.4936 99.0581 67.9896 98.9001 68.4416C98.2871 70.2196 97.5641 71.9906 96.7521 73.7026C96.7071 73.7966 96.6471 73.8756 96.5791 73.9436ZM78.3091 94.5996C78.2661 94.6426 78.2171 94.6836 78.1621 94.7176C76.5701 95.7346 74.9021 96.6706 73.2051 97.5036C72.7741 97.7146 72.2551 97.5366 72.0421 97.1036C71.8311 96.6756 72.0091 96.1516 72.4411 95.9416C74.0791 95.1376 75.6891 94.2326 77.2271 93.2526C77.6311 92.9936 78.1691 93.1116 78.4281 93.5176C78.6501 93.8686 78.5931 94.3166 78.3091 94.5996ZM90.6801 83.4086C90.3721 83.7156 89.8781 83.7516 89.5261 83.4746C89.1501 83.1766 89.0881 82.6296 89.3851 82.2526C90.5141 80.8276 91.5781 79.3176 92.5451 77.7666C92.7971 77.3406 93.3381 77.2346 93.7431 77.4886C94.1501 77.7436 94.2751 78.2786 94.0201 78.6856C93.0181 80.2926 91.9181 81.8556 90.7501 83.3336C90.7261 83.3596 90.7051 83.3836 90.6801 83.4086ZM86.9801 87.5886L86.7881 87.7806C85.5161 89.0526 84.1631 90.2726 82.7711 91.3986C82.3981 91.6996 81.8501 91.6426 81.5481 91.2686C81.2471 90.8956 81.2861 90.3676 81.6781 90.0456C83.0231 88.9586 84.3291 87.7826 85.5591 86.5516L85.7511 86.3596C86.0911 86.0196 86.6411 86.0196 86.9801 86.3596C87.3201 86.6996 87.3201 87.2496 86.9801 87.5886Z" fill="#FFA608"/>
</g>
</svg>

<svg width="102" height="103" viewBox="0 0 102 103" fill="none" xmlns="http://www.w3.org/2000/svg"><path fill-rule="evenodd" clip-rule="evenodd" d="M58.153 32.81a8.942 8.942 0 01-12.646 0 8.94 8.94 0 010-12.646 8.94 8.94 0 0112.646 0 8.941 8.941 0 010 12.646zm8.644-17.012l-4.215-4.216-4.075 2.36a14.091 14.091 0 00-2.453-1.019l-1.212-4.547H48.88l-1.206 4.523c-.854.26-1.69.599-2.492 1.024l-4.042-2.341-4.216 4.216 2.34 4.042a14.18 14.18 0 00-1.024 2.492l-4.522 1.206v5.961l4.547 1.212c.26.841.598 1.663 1.019 2.453l-2.36 4.075 4.216 4.216 4.098-2.374c.78.408 1.59.734 2.417.988l1.225 4.592h5.96l1.232-4.617a14.096 14.096 0 002.38-.98l4.129 2.391 4.215-4.216-2.39-4.128c.404-.768.726-1.567.98-2.381l4.616-1.231v-5.961l-4.591-1.224a14.106 14.106 0 00-.988-2.417l2.373-4.099z" fill="#F7941E"/><path fill-rule="evenodd" clip-rule="evenodd" d="M69.632 75.067c-4.761 4.762-12.483 4.762-17.245 0-4.761-4.763-4.761-12.483 0-17.245 4.763-4.764 12.484-4.764 17.245 0 4.762 4.761 4.762 12.481 0 17.245zM81.42 51.869l-5.748-5.748-5.553 3.215a19.132 19.132 0 00-3.35-1.395l-1.65-6.193h-8.13l-1.642 6.163a19.29 19.29 0 00-3.4 1.4l-5.511-3.19-5.748 5.747 3.19 5.511a19.218 19.218 0 00-1.4 3.4l-6.162 1.642v8.13l6.193 1.651a19.26 19.26 0 001.393 3.35l-3.215 5.553 5.748 5.748 5.589-3.235a19.215 19.215 0 003.297 1.35l1.669 6.257h8.129l1.675-6.286a19.193 19.193 0 003.25-1.345l5.628 3.26 5.748-5.748-3.258-5.63a19.393 19.393 0 001.344-3.248l6.287-1.677v-8.13l-6.257-1.667a19.29 19.29 0 00-1.352-3.297l3.236-5.589z" fill="#F86703"/><path fill-rule="evenodd" clip-rule="evenodd" d="M29.169 61.885a7.234 7.234 0 11-8.593-11.64 7.234 7.234 0 018.593 11.64zm8.963-12.566l-2.862-3.88-3.545 1.396a11.275 11.275 0 00-1.84-1.11l-.42-3.783-4.77-.719-1.509 3.473c-.715.104-1.424.276-2.116.518l-2.951-2.359-3.88 2.864 1.384 3.516c-.435.59-.808 1.217-1.12 1.87l-3.761.42-.72 4.767 3.492 1.518c.107.704.277 1.402.519 2.085l-2.378 2.974 2.864 3.88 3.565-1.404c.573.42 1.183.778 1.814 1.081l.425 3.82 4.768.72 1.541-3.545c.682-.105 1.36-.266 2.022-.498l3.015 2.41 3.88-2.864-1.414-3.59c.416-.565.769-1.165 1.07-1.786l3.842-.429.718-4.768-3.526-1.532a11.379 11.379 0 00-.498-2.053l2.392-2.992z" fill="#F15A28"/><mask id="mask0_0_2335" style="mask-type:alpha" maskUnits="userSpaceOnUse" x="0" y="1" width="102" height="102"><path fill-rule="evenodd" clip-rule="evenodd" d="M101.678 1v101.671H0V1.001h101.678z" fill="#fff"/></mask><g mask="url(#mask0_0_2335)"><path fill-rule="evenodd" clip-rule="evenodd" d="M19.641 13.902a.559.559 0 01-.062.057 49.818 49.818 0 00-3.46 3.152l-.57.577c-.344.295-.885.353-1.229.017a.868.868 0 01-.017-1.23l.586-.594a51.654 51.654 0 013.583-3.261.867.867 0 011.223.116.867.867 0 01-.054 1.166zM8.721 26.518a.868.868 0 01-1.358-1.065 50.409 50.409 0 013.22-4.684.87.87 0 111.376 1.064 48.818 48.818 0 00-3.11 4.52.882.882 0 01-.129.165zm20.256-18.72a.831.831 0 01-.224.165 48.923 48.923 0 00-4.756 2.74.869.869 0 01-1.202-.252.863.863 0 01.251-1.203 50.506 50.506 0 014.927-2.841.868.868 0 011.004 1.392zm-24.94 28.84a.864.864 0 01-.889.209.866.866 0 01-.55-1.098 51.406 51.406 0 012.091-5.284.868.868 0 011.154-.424c.435.2.627.716.425 1.153a50.061 50.061 0 00-2.022 5.104.851.851 0 01-.209.34zM39.441 3.93a.852.852 0 01-.406.23 48.487 48.487 0 00-5.248 1.61.868.868 0 01-1.117-.514.865.865 0 01.515-1.116 50.525 50.525 0 015.434-1.67.868.868 0 01.822 1.46zM1.721 47.543a.871.871 0 01-.7.252.873.873 0 01-.78-.952 52.15 52.15 0 01.866-5.613.87.87 0 111.701.359 50.632 50.632 0 00-.836 5.424.865.865 0 01-.25.53zm48.78-45.06a.861.861 0 01-.598.256 49.995 49.995 0 00-5.474.407.867.867 0 01-.975-.75.865.865 0 01.75-.973A50.795 50.795 0 0149.87 1a.869.869 0 01.63 1.483zM1.871 58.698a.867.867 0 01-1.478-.506A51.922 51.922 0 010 52.52a.876.876 0 01.86-.883.873.873 0 01.881.86c.025 1.823.151 3.668.38 5.477a.873.873 0 01-.25.723zM61.607 3.512a.867.867 0 01-.789.238 49.818 49.818 0 00-5.428-.811.872.872 0 01-.787-.945.871.871 0 01.946-.786c1.884.174 3.774.456 5.62.838a.87.87 0 01.438 1.466zM4.484 69.542a.867.867 0 01-1.432-.319 51.139 51.139 0 01-1.64-5.441.87.87 0 111.692-.407c.428 1.778.96 3.545 1.582 5.256.12.329.03.68-.202.912zm67.723-62.57a.867.867 0 01-.974.176 49.164 49.164 0 00-5.113-1.992.87.87 0 11.538-1.654 50.808 50.808 0 015.295 2.065.867.867 0 01.254 1.405zM9.447 79.534a.87.87 0 01-1.345-.142 50.95 50.95 0 01-2.813-4.943.871.871 0 011.559-.773 48.692 48.692 0 002.714 4.77.87.87 0 01-.116 1.088zm72.318-66.821a.872.872 0 01-1.143.075 48.292 48.292 0 00-4.537-3.083.871.871 0 01-.298-1.195.88.88 0 011.195-.297 51.123 51.123 0 014.7 3.192.872.872 0 01.083 1.308zM16.508 88.166a.868.868 0 01-1.222.007l-.39-.384a50.99 50.99 0 01-3.447-3.806c-.307-.373-.25-.962.121-1.224a.868.868 0 011.223.122 50.126 50.126 0 003.325 3.67l.382.378a.867.867 0 01.015 1.23l-.007.007zm74.006-66.898a.871.871 0 01-1.295-.069 50.149 50.149 0 00-4.427-4.84.87.87 0 01-.028-1.23l.014-.013a.868.868 0 011.215-.015 51.842 51.842 0 014.585 5.01.871.871 0 01-.064 1.157zM25.29 95.034a.869.869 0 01-1.07.126 50.717 50.717 0 01-4.664-3.246.867.867 0 01-.148-1.221c.293-.341.842-.445 1.221-.147a49.374 49.374 0 004.504 3.133.872.872 0 01.157 1.355zm71.174-64.328a.872.872 0 01-1.398-.237 49.485 49.485 0 00-2.664-4.8.871.871 0 011.472-.929 51.16 51.16 0 012.76 4.972.871.871 0 01-.17.994zm-61.08 69.069a.866.866 0 01-.892.21 49.893 49.893 0 01-5.273-2.124.868.868 0 01-.416-1.157.866.866 0 011.156-.416 49.108 49.108 0 005.088 2.049.87.87 0 01.337 1.438zm64.771-58.542a.867.867 0 01-1.46-.421 49.626 49.626 0 00-1.524-5.273.867.867 0 01.532-1.108c.453-.16.95.08 1.107.533a50.486 50.486 0 011.578 5.46.865.865 0 01-.233.809zM46.279 102.15a.863.863 0 01-.704.25 50.863 50.863 0 01-5.609-.898.87.87 0 01.37-1.701c1.773.388 3.597.679 5.418.87a.87.87 0 01.525 1.479zm55.144-49.835a.863.863 0 01-.613.254.866.866 0 01-.87-.867 49.69 49.69 0 00-.32-5.48.88.88 0 01.765-.964.874.874 0 01.963.767c.216 1.876.326 3.784.33 5.674a.86.86 0 01-.255.616zm-43.99 49.745a.868.868 0 01-.51.25 50.976 50.976 0 01-5.673.361.869.869 0 01-.876-.863.868.868 0 01.862-.876 49.337 49.337 0 005.478-.351.868.868 0 01.719 1.479zm42.782-38.658a.87.87 0 01-1.464-.804c.398-1.777.7-3.597.897-5.413a.868.868 0 01.958-.774.874.874 0 01.773.96 51.457 51.457 0 01-.93 5.606.863.863 0 01-.234.425zM68.289 99.507a.859.859 0 01-.323.205 51.807 51.807 0 01-5.452 1.609.87.87 0 11-.399-1.694 49.948 49.948 0 005.267-1.552.867.867 0 011.111.526.864.864 0 01-.204.906zm28.29-25.563a.868.868 0 01-1.4-.987 49.746 49.746 0 002.08-5.081.866.866 0 011.103-.538.867.867 0 01.538 1.104 51.496 51.496 0 01-2.148 5.26.873.873 0 01-.173.242zM78.31 94.6a.818.818 0 01-.147.118 50.916 50.916 0 01-4.957 2.786.87.87 0 01-.764-1.562 49.664 49.664 0 004.786-2.69.868.868 0 011.082 1.348zm12.37-11.191a.87.87 0 01-1.295-1.156 48.997 48.997 0 003.16-4.486.854.854 0 011.198-.278c.407.255.532.79.277 1.197a51.306 51.306 0 01-3.27 4.648c-.024.026-.045.05-.07.075zm-3.7 4.18l-.192.192a51.637 51.637 0 01-4.017 3.618.87.87 0 01-1.223-.13.856.856 0 01.13-1.223 49.447 49.447 0 003.881-3.494l.192-.192a.868.868 0 111.23 1.229z" fill="#FFA608"/></g></svg>
